X: 35280
T: Rose Of Aranmore, The
R: waltz
M: 3/4
K: Dmajor
AF|D4F2|A2F2D2|G4B2|d2c2B2|
A4B2|A2F2D2|E6 -|E2A2F2|
D4F2|A2F2D2|G4B2|d2c2B2|
A4F2|G2F2E2|D6 -|D4D2||
G4B2|d2c2B2|A4B2|A2F2D2|
G4B2|A4F2|E6 -|E2A2F2|
D4F2|A2F2D2|G4B2|d2c2B2|
A4F2|G2F2E2|D6 -|D4:|

